dist/images/union-yellow.svg

<svg width="40" height="40" viewBox="0 0 40 40" fill="none" xmlns="http://www.w3.org/2000/svg">
<path fill-rule="evenodd" clip-rule="evenodd" d="M0 0H11.8024V1.92H0V0ZM33.7528 8.2666H4.0599V16.5866L8.01042 16.5866V26.6133H15.7541V16.5866L33.7528 16.5866V8.2666ZM31.8827 29.8132H17.7839V36.8531H31.8827V29.8132ZM31.8828 21.7067H40.0003V29.8134H31.8828V21.7067ZM40.0003 36.8535H31.8828V40.0002H40.0003V36.8535Z" fill="#E9AB1D"/>
</svg>

<svg width="40" height="40" fill="none" xmlns="http://www.w3.org/2000/svg"><path fill-rule="evenodd" clip-rule="evenodd" d="M0 0h11.802v1.92H0V0zm33.753 8.267H4.06v8.32h3.95v10.026h7.744V16.587h17.999v-8.32zm-1.87 21.546h-14.1v7.04h14.1v-7.04zm0-8.106H40v8.106h-8.117v-8.106zM40 36.853h-8.117V40H40v-3.147z" fill="#E9AB1D"/></svg>
